packages/foundations/assets/icons/functional/images/social/share_20.svg

<svg width="20" height="20" viewBox="0 0 20 20" fill="none" xmlns="http://www.w3.org/2000/svg">
<g clip-path="url(#clip0_187_425)">
<path fill-rule="evenodd" clip-rule="evenodd" d="M14.5057 2C16.447 2 18 3.55505 18 5.49872C18 7.42196 16.447 8.99744 14.5057 8.99744C13.4636 8.99744 12.5237 8.52683 11.8902 7.79025L8.90679 9.22253C8.96804 9.46806 8.98846 9.73403 8.98846 10C8.98846 10.266 8.96804 10.5319 8.90679 10.7775L11.8697 12.1892C12.5237 11.4732 13.4636 11.0026 14.5057 11.0026C16.4266 11.0026 18 12.578 18 14.5013C18 16.445 16.4266 18 14.5057 18C12.5645 18 11.0115 16.445 11.0115 14.5013C11.0115 14.3376 11.032 14.1534 11.0524 14.0102L7.9055 12.5371C7.29246 13.1304 6.43421 13.4987 5.49428 13.4987C3.57338 13.4987 2 11.9232 2 10C2 8.05632 3.57338 6.50128 5.49428 6.50128C6.43421 6.50128 7.29246 6.86957 7.92592 7.46295L11.0524 5.96934C11.032 5.82613 11.0115 5.66237 11.0115 5.49872C11.0115 3.55505 12.5849 2 14.5057 2ZM14.5057 13.0077C13.6884 13.0077 13.0141 13.6828 13.0141 14.5013C13.0141 15.3196 13.6884 15.9949 14.5057 15.9949C15.3231 15.9949 15.9974 15.3196 15.9974 14.5013C15.9974 13.6828 15.3231 13.0077 14.5057 13.0077ZM5.49428 8.50639C4.67686 8.50639 4.00257 9.1611 4.00257 10C4.00257 10.8185 4.67686 11.4936 5.49428 11.4936C6.33202 11.4936 7.00641 10.8185 7.00641 10C7.00641 9.1611 6.33202 8.50639 5.49428 8.50639ZM14.5057 3.98467C13.6884 3.98467 13.0141 4.65982 13.0141 5.49872C13.0141 6.31718 13.6884 6.99233 14.5057 6.99233C15.3436 6.99233 16.0179 6.31718 16.0179 5.49872C16.0179 4.65982 15.3436 3.98467 14.5057 3.98467Z" fill="#1A1C1F"/>
</g>
<defs>
<clipPath id="clip0_187_425">
<rect width="20" height="20" fill="white"/>
</clipPath>
</defs>
</svg>

<svg xmlns="http://www.w3.org/2000/svg" width="20" height="20" fill="none"><g clip-path="url(#a)"><path fill="#1A1C1F" fill-rule="evenodd" d="M14.506 2A3.48 3.48 0 0 1 18 5.499a3.495 3.495 0 0 1-3.494 3.498A3.45 3.45 0 0 1 11.89 7.79L8.907 9.223c.061.245.081.511.081.777s-.02.532-.081.777l2.963 1.412c.654-.716 1.594-1.186 2.636-1.186A3.51 3.51 0 0 1 18 14.5 3.495 3.495 0 0 1 14.506 18a3.48 3.48 0 0 1-3.495-3.499c0-.163.021-.348.041-.49l-3.146-1.474a3.47 3.47 0 0 1-2.412.962A3.51 3.51 0 0 1 2 10a3.495 3.495 0 0 1 3.494-3.499c.94 0 1.798.369 2.432.962l3.126-1.494a3.4 3.4 0 0 1-.04-.47A3.495 3.495 0 0 1 14.506 2m0 11.008a1.5 1.5 0 0 0-1.492 1.493c0 .819.674 1.494 1.492 1.494.817 0 1.491-.675 1.491-1.494a1.5 1.5 0 0 0-1.491-1.493M5.494 8.506c-.817 0-1.491.655-1.491 1.494a1.5 1.5 0 0 0 3.003 0c0-.839-.674-1.494-1.512-1.494m9.012-4.521c-.818 0-1.492.675-1.492 1.514a1.501 1.501 0 0 0 3.004 0 1.51 1.51 0 0 0-1.512-1.514" clip-rule="evenodd"/></g><defs><clipPath id="a"><path fill="#fff" d="M0 0h20v20H0z"/></clipPath></defs></svg>
